X: 20833
T: Johnny's Wedding
R: reel
M: 4/4
K: Dminor
DE|FDAD FDDF|ECGC ECCE|FDAD FDDF|E^CG,C D2 DE|
FDAD FDDF|ECGC ECCE|DFEG FAGB|Ad^ce d2:|
|:de|f2 e2 dcAB|cAGF ED C2|fdec d2 A^G|Ad^ce d2 de|
f2 e2 dcAB|cAGF ED C2|DFEG FAGB|Ad^ce d2:|
|:c2|d2 dc defd|cdcB AGFE|d2 dc d2 A^G|Ad^ce d2 =c2|
d2 dc defd|cdcB AGFE|DFEG FAGB|Ad^ce d2:|

